icon/ir/fast-arrow-left-box.svg

<svg stroke-width="1.5" viewBox="0 0 24 24" fill="none" xmlns="http://www.w3.org/2000/svg" height="1em" width="1em">
  <path d="M3 20.4V3.6C3 3.26863 3.26863 3 3.6 3H20.4C20.7314 3 21 3.26863 21 3.6V20.4C21 20.7314 20.7314 21 20.4 21H3.6C3.26863 21 3 20.7314 3 20.4Z" stroke="currentColor" stroke-width="1.5"/>
  <path d="M16.5 8.5L13 12L16.5 15.5" stroke="currentColor" stroke-linecap="round" stroke-linejoin="round"/>
  <path d="M10.5 8.5L7 12L10.5 15.5" stroke="currentColor" stroke-linecap="round" stroke-linejoin="round"/>
</svg>

<svg width="24" height="24" stroke-width="1.5" fill="none" xmlns="http://www.w3.org/2000/svg"><path d="M3 20.4V3.6a.6.6 0 0 1 .6-.6h16.8a.6.6 0 0 1 .6.6v16.8a.6.6 0 0 1-.6.6H3.6a.6.6 0 0 1-.6-.6Z" stroke="currentColor"/><path d="M16.5 8.5 13 12l3.5 3.5M10.5 8.5 7 12l3.5 3.5" stroke="currentColor" stroke-linecap="round" stroke-linejoin="round"/></svg>
